!!!!SEGMENT: pl-cz--iii-487--001-002_went-johann-nepomuk--partita-es-adagio.krn
!!!cenid: 18xx:2483
!!!COM: Went, Johann Nepomuk
!!!COM-rismID: pe30003326
!!!CDT: 1745-1801
!!!CNT: Czech
!!!OPR: Partita Es
!!!OTL: Adagio
!!!OMV: 002
!!!PDT:
!!!AGN: Secular; Partita
!!!SMS-siglum: PL-CZ
!!!SMS-shelfmark: III-487
!!!SMS-shelfwork: 001-002 M
!!!SMS-variant:
!!!SMS-altvar:
!!!NIFC-rismSourceID: 300000863
!!!NIFC-rismChildID: 300000863
!!!NIFC-islandoraID: pl-cz:18769
!!!URL-pdf-islandora: https://repozytorium.nifc.pl/islandora/object/pl-cz%3A18769/datastream/PDF/view
!!!URL-scan: https://polish.musicsources.pl/pl/lokalizacje/galeria/rekopisy/1258 @EN{Scan on Polish Music Sources Website} @PL{Skany w portalu Dziedzictwo Muzyki Polskiej w otwartym dostępie}
!!!IIIF:
!!!ONB-nifc: UWAGA: części Partity: 1. Allegro assai, 2. Andante, 3. Menuetto, 4. Presto
!!!AIN: 2 clars 2 cor 1 fagot
!!!key:
**kern	**dynam	**kern	**dynam	**kern	**dynam	**kern	**dynam	**kern	**dynam
*part5	*part5	*part4	*part4	*part3	*part3	*part2	*part2	*part1	*part1
*staff5	*	*staff4	*	*staff3	*	*staff2	*	*staff1	*
*Icor	*	*Icor	*	*Ifagot	*	*Iclars	*	*Iclars	*
*I"/: Corno Secondo :/ in Dis	*	*I"/: Corno Primo :/ in Dis:	*	*I"/: Fagotti Due :/	*	*I"/: Clarinetto Secondo :/	*	*I"/: Clarinetto Primo :/	*
*I'cor 2	*	*I'cor 1	*	*I'fag	*	*I'cl 2	*	*I'cl 1	*
*clefG2	*	*clefG2	*	*clefF4	*	*clefG2	*	*clefG2	*
*ITrd5c9	*	*ITrd5c9	*	*	*	*ITrd1c2	*	*ITrd1c2	*
*k[b-e-a-]	*	*k[b-e-a-]	*	*k[b-e-a-]	*	*k[b-e-a-]	*	*k[b-e-a-]	*
*E-:	*	*E-:	*	*E-:	*	*E-:	*	*E-:	*
*M3/4	*	*M3/4	*	*M3/4	*	*M3/4	*	*M3/4	*
*>[A,A,B,B]	*	*>[A,A,B,B]	*	*>[A,A,B,B]	*	*>[A,A,B,B]	*	*>[A,A,B,B]	*
=1	=1	=1	=1	=1	=1	=1	=1	=1	=1
*>A	*	*>A	*	*>A	*	*>A	*	*>A	*
!	!	!	!	!LO:TX:a:B:t=/&colon; Andante &colon;/	!	!	!	!LO:TX:b:i:t=dol.	!
!LO:TX:a:B:t=Adagio	!	!LO:TX:a:B:t=Adagio	!	!LO:TX:b:i:t=dolce	!	!LO:TX:a:B:t=/&colon; Adagio &colon;/	!	!LO:TX:a:B:t=/&colon; Adagio &colon;/	!
.	.	.	.	.	.	16qqa-/	.	.	.
!	!LO:DY:a	!	!	!	!	!	!LO:DY:rj	!	!LO:DY:a
4E-/	p	4e-\	p	8.B-\L	.	8.g/L	p	8.b-\L	p
.	.	.	.	16A-\Jk	.	16f/Jk	.	16a-\Jk	.
4E-/	.	4e-\	.	8G\L	.	8e-/L	.	8g\L	.
.	.	.	.	8A-\	.	8f/	.	8a-\	.
4E-/	.	4e-\	.	8B-\	.	8g/	.	8b-\	.
.	.	.	.	8c\J	.	8a-/J	.	8cc\J	.
=2	=2	=2	=2	=2	=2	=2	=2	=2	=2
4E-/	.	4e-\	.	4c\	.	4a-/	f	4cc\	f
4E-/	.	4e-\	.	16B-\LL	.	16g/LL	.	(16b-\LL	.
.	.	.	.	16A-\	.	16f/	.	16a-\	.
.	.	.	.	16G\	.	16e-/	.	16g\	.
.	.	.	.	16A-\JJ	.	16f/JJ	.	16a-\JJ)	.
4E-/	.	4e-\	.	16B-\LL	.	16g\LL	.	16b-\LL	.
.	.	.	.	16c\	.	16a-\	.	16cc\	.
.	.	.	.	16d\	.	16b-\	.	16dd\	.
.	.	.	.	16e-\JJ	.	16cc\JJ	.	16ee-\JJ	.
=3	=3	=3	=3	=3	=3	=3	=3	=3	=3
.	.	.	.	.	.	16qqb-/	.	.	.
*	*	*2\right	*	*	*	*	*	*	*
!	!	!	!	!	!	!	!	!	!LO:DY:rj
2.E-/	.	2.e-\	.	8e-\L	.	8cc\L	.	(8ee-\L	p
.	.	.	.	8d\	.	8b-\J	.	8dd\	.
.	.	.	.	8c\	.	8a-/L	.	8cc\	.
.	.	.	.	8B-\	.	8g/	.	8b-\	.
.	.	.	.	8A-\	.	8f/	.	8a-\	.
.	.	.	.	8G\J	.	8e-/J	.	8g\J)	.
=4	=4	=4	=4	=4	=4	=4	=4	=4	=4
!	!	!	!LO:DY:rj:t=f.	!	!	!	!	!	!
4BB-/	.	4B-/	f	8.F\L	.	8.d/L	.	8.f/L	.
.	.	.	.	(32G\LL	.	(32e-/LL	.	(32g/LL	.
.	.	.	.	32A-\JJJ)	.	32f/JJJ)	.	32a-/JJJ)	.
!	!	!	!	!LO:LB:g=original	!	!LO:LB:g=original	!	!	!
=-	=-	=-	=-	=-	=-	=-	=-	=-	=-
8r	.	8r	.	4G\	.	4e-/	.	4g/	.
8B-/L	.	8b-\L	p	.	.	.	.	.	.
8B-/	.	8b-\	.	4r	.	4r	.	4r	.
8B-/J	.	8b-\J	.	.	.	.	.	.	.
!	!	!	!	!	!	!	!	!LO:LB:g=original	!
=5	=5	=5	=5	=5	=5	=5	=5	=5	=5
!	!	!	!	!	!LO:DY:rj	!	!	!	!LO:DY:rj:t=f.
4.B-/	.	4.b-\	f	4AA-/	f	4f/	.	8.dd\L	f
.	.	.	.	.	.	.	.	(32ee-\LL	.
.	.	.	.	.	.	.	.	32ff\JJJ)	.
!	!	!	!	!	!	!	!	!	!LO:DY:rj
.	.	.	.	4GG/	.	4g/	.	4ee-\	p
8B-/L	.	8b-\L	p	.	.	.	.	.	.
8B-/	.	8b-\	.	4r	.	4r	.	4r	.
8B-/J	.	8b-\J	.	.	.	.	.	.	.
!	!	!LO:LB:g=original	!	!	!	!	!	!	!
=6	=6	=6	=6	=6	=6	=6	=6	=6	=6
!	!	!	!	!	!	!	!	!	!LO:DY:rj:t=f&colon;
[4B-/	.	4b-\	p	4AA-/	.	4f/	.	8.dd\L	f
.	.	.	.	.	.	.	.	(32ee-\LL	.
.	.	.	.	.	.	.	.	32ff\JJJ)	.
8B-/]	.	8b-\	.	4GG/	.	4g/	.	8ee-\L	p
8r	.	8r	.	.	.	.	.	8bb-\	.
!LO:LB:g=original	!	!	!	!	!	!	!	!	!
=-	=-	=-	=-	=-	=-	=-	=-	=-	=-
4r	.	4r	.	4r	.	4r	.	8bb-\	.
.	.	.	.	.	.	.	.	8bb-\J	.
=7	=7	=7	=7	=7	=7	=7	=7	=7	=7
2E-/	.	2e-\	.	4GG/	.	4b-\	.	4bb-\	.
.	.	.	.	4AA-/	.	8cc\L	.	8aa-\L	.
.	.	.	.	.	.	8b-\	.	8gg\	.
4r	.	4r	.	4AA-/	.	8a-\	.	8ff\	.
.	.	.	.	.	.	8g\J	.	8ee-\J	.
=8	=8	=8	=8	=8	=8	=8	=8	=8	=8
*	*	*	*	*	*	*	*	*2\right	*
(2B-/	.	(2f\	.	8r	.	4.a-/	.	(2dd\	.
!	!	!	!	!LO:TX:t=P:problem=mixed beam	!	!	!	!	!
.	.	.	.	8BB-/L	.	.	.	.	.
.	.	.	.	8B-\	.	.	.	.	.
.	.	.	.	8A-\	.	8f/L	.	.	.
8e-\)	.	8g\)	.	8G\	.	8g/	.	8ee-\)	.
8r	.	8r	.	8F\J	.	8a-/J	.	8r	.
=9	=9	=9	=9	=9	=9	=9	=9	=9	=9
4.e-\	.	4.g\	.	4.E-\	.	8.b-\L	.	16ee-\LL	.
.	.	.	.	.	.	.	.	16ff\	.
.	.	.	.	.	.	.	.	16gg\	.
.	.	.	.	.	.	16a-\Jk	.	16ff\JJ	.
!	!	!	!	!	!	!	!	!LO:LB:g=original	!
=-	=-	=-	=-	=-	=-	=-	=-	=-	=-
.	.	.	.	.	.	8g/L	.	8ee-\L	.
(8g\L	.	8b-\L	.	8EE-/L	.	8g/	.	8b-\	.
8f\	.	8a-\	.	8AA-/	.	8f/	.	8a-\	.
8e-\J)	.	8g\J	.	8AAn/J	.	8e-/J	.	8g\J	.
!	!	!	!	!LO:LB:g=original	!	!LO:LB:g=original	!	!	!
=10	=10	=10	=10	=10	=10	=10	=10	=10	=10
(4e-/	.	4g\	.	4BB-/	.	4e-/	.	4g/	.
4B-/)	.	4f\	.	4B-\	.	4d/	.	4f/	.
!	!	!	!	!LO:TX:t=10	!	!	!	!LO:TX:t=10	!
4r	.	4r	.	4r	.	4r	.	4r	.
=11:|!|:	=11:|!|:	=11:|!|:	=11:|!|:	=11:|!|:	=11:|!|:	=11:|!|:	=11:|!|:	=11:|!|:	=11:|!|:
*>B	*	*>B	*	*>B	*	*>B	*	*>B	*
!LO:TX:a:t=1	!	!	!	!	!	!	!	!LO:TX:a:t=1	!
2.r	.	8f\	.	2.BB-/	.	2.d/	.	2.r	.
!	!	!LO:TX:b:i:t=Solo	!	!	!	!	!	!	!
.	.	4b-\	.	.	.	.	.	.	.
.	.	16b-\LL	.	.	.	.	.	.	.
.	.	16cc\JJ	.	.	.	.	.	.	.
!	!	!LO:LB:g=original	!	!	!	!	!	!	!
=-	=-	=-	=-	=-	=-	=-	=-	=-	=-
.	.	16b-\LL	.	.	.	.	.	.	.
.	.	16aX\	.	.	.	.	.	.	.
.	.	16g\	.	.	.	.	.	.	.
.	.	16f\JJ	.	.	.	.	.	.	.
=12	=12	=12	=12	=12	=12	=12	=12	=12	=12
4E-/	.	4e-\	.	2.C/	.	2.c/	.	8a\	.
.	.	.	.	.	.	.	.	4ee-\	.
4E-/	.	4e-\	.	.	.	.	.	.	.
.	.	.	.	.	.	.	.	16ee-\LL	.
.	.	.	.	.	.	.	.	16ff\JJ	.
4E-/	.	4r	.	.	.	.	.	16ee-\LL	.
.	.	.	.	.	.	.	.	16dd\	.
.	.	.	.	.	.	.	.	16cc\	.
.	.	.	.	.	.	.	.	16b-\JJ	.
=13	=13	=13	=13	=13	=13	=13	=13	=13	=13
!LO:TX:t=P:problem=dźwięk nieczytelny	!	!	!	!	!	!	!	!	!
4ryy	.	4f\	.	8FF/	.	2.c/	.	4a\	.
.	.	.	.	4F\	.	.	.	.	.
4r	.	4r	.	.	.	.	.	4f/	.
.	.	.	.	16c\LL	.	.	.	.	.
.	.	.	.	16B-\JJ	.	.	.	.	.
4r	.	4r	.	16An\LL	.	.	.	4r	.
.	.	.	.	16G\	.	.	.	.	.
.	.	.	.	16F\	.	.	.	.	.
.	.	.	.	16E-\JJ	.	.	.	.	.
!LO:LB:g=original	!	!	!	!	!	!	!	!LO:LB:g=original	!
=14	=14	=14	=14	=14	=14	=14	=14	=14	=14
4B-/	.	4f\	.	4D/	.	2.B-/	.	8b-\	.
.	.	.	.	.	.	.	.	4dd\	.
4r	.	4r	.	4BB-/	.	.	.	.	.
.	.	.	.	.	.	.	.	16ff\LL	.
.	.	.	.	.	.	.	.	16ee-\JJ	.
4r	.	4r	.	4r	.	.	.	16dd\LL	.
.	.	.	.	.	.	.	.	16cc\	.
.	.	.	.	.	.	.	.	16b-\	.
.	.	.	.	.	.	.	.	16a-X\JJ	.
=15	=15	=15	=15	=15	=15	=15	=15	=15	=15
8G/	.	8e-\	.	2.EE-/	.	4e-/	.	4g/	.
4e-\	.	4g\	.	.	.	.	.	.	.
.	.	.	.	.	.	4r	.	4r	.
16g\LL	.	16b-\LL	.	.	.	.	.	.	.
16f\JJ	.	16a-\JJ	.	.	.	.	.	.	.
16f\LL	.	16a-\LL	.	.	.	4r	.	4r	.
16e-\	.	16g\	.	.	.	.	.	.	.
16B-\	.	16f\	.	.	.	.	.	.	.
16G\JJ	.	16e-\JJ	.	.	.	.	.	.	.
=16	=16	=16	=16	=16	=16	=16	=16	=16	=16
2.E-/	.	2.e-\	.	2.AA-/	.	8c/	.	8cc\	.
.	.	.	.	.	.	4a-\	.	4cc\	.
.	.	.	.	.	.	8a-\	.	8cc\	.
.	.	.	.	.	.	16a-\LL	.	16cc\LL	.
.	.	.	.	.	.	16b-\	.	16dd\	.
.	.	.	.	.	.	16b-\	.	16ee-\	.
.	.	.	.	.	.	16cc\JJ	.	16ff\JJ	.
!	!	!LO:LB:g=original	!	!LO:LB:g=original	!	!LO:LB:g=original	!	!	!
=17	=17	=17	=17	=17	=17	=17	=17	=17	=17
4r	.	4r	.	4GG/	.	(8b-\L	.	8dd\L	.
.	.	.	.	.	.	8g\J)	.	8b-\J	.
4r	.	4r	.	4EE-/	.	8r	.	8r	.
.	.	.	.	.	.	8g/	.	8b-\	.
4B-/	.	4f\	.	4AA-/	.	(16g/LL	.	16cc\LL	.
.	.	.	.	.	.	16f/	.	16b-\	.
.	.	.	.	.	.	16e-/	.	16a-\	.
.	.	.	.	.	.	16d/JJ)	.	16g\JJ	.
!	!	!	!	!	!	!	!	!LO:LB:g=original	!
=18	=18	=18	=18	=18	=18	=18	=18	=18	=18
4G/	.	4e-\	.	4BB-/	.	(4e-/	.	4g/	.
4r	.	4r	.	4BBB-/	.	4d/)	.	4f/	.
4r	.	4r	.	4r	.	4r	.	4r	.
=19	=19	=19	=19	=19	=19	=19	=19	=19	=19
!	!	!	!LO:DY:rj	!	!	!	!LO:DY:rj	!	!
4E-/	.	4e-\	p	8.B-\L	.	8.g/L	p	8.b-\L	.
.	.	.	.	16A-\Jk	.	16f/Jk	.	16a-\Jk	.
4E-/	.	4e-\	.	8G\L	.	8e-/L	.	8g\L	.
.	.	.	.	8A-\	.	8f/	.	8a-\	.
4E-/	.	4e-\	.	8B-\	.	8g/	.	8b-\	.
.	.	.	.	8c\J	.	8a-/J	.	8cc\J	.
=20	=20	=20	=20	=20	=20	=20	=20	=20	=20
4E-/	.	4e-\	.	4c\	.	(4a-/	.	4cc\	.
4E-/	.	4e-\	.	16B-\LL	.	16g/LL)	.	(16b-\LL	.
.	.	.	.	16A-\	.	16f/	.	16a-\	.
.	.	.	.	16G\	.	16e-/	.	16g\	.
.	.	.	.	16A-\JJ	.	16f/JJ	.	16a-\JJ)	.
4E-/	.	4e-\	.	16B-\LL	.	16g\LL	.	(16b-\LL	.
.	.	.	.	16c\	.	16a-\	.	16cc\	.
.	.	.	.	16d\	.	16b-\	.	16dd\	.
.	.	.	.	16e-\JJ	.	16cc\JJ	.	16ee-\JJ)	.
!	!	!	!	!	!	!LO:LB:g=original	!	!	!
=21	=21	=21	=21	=21	=21	=21	=21	=21	=21
2.E-/	.	2.e-\	.	8e-\L	.	8cc\L	.	(8ee-\L	.
.	.	.	.	8d\	.	8b-\J	.	8dd\	.
.	.	.	.	8c\	.	8a-/L	.	8cc\	.
.	.	.	.	8B-\	.	8g/	.	8b-\	.
.	.	.	.	8A-\	.	8f/	.	8a-\	.
.	.	.	.	8G\J	.	8e-/J	.	8g\J)	.
!	!	!	!	!LO:LB:g=original	!	!	!	!	!
=22	=22	=22	=22	=22	=22	=22	=22	=22	=22
!	!	!	!LO:DY:t=f.	!	!	!	!	!	!
4BB-/	.	4B-/	f	8.F\L	.	8.d/L	.	8.f/L	.
.	.	.	.	32G\LL	.	(32e-/LL	.	(32g/LL	.
.	.	.	.	32A-\JJJ	.	32f/JJJ)	.	32a-/JJJ)	.
.	.	.	.	.	.	16qqf/	.	.	.
8r	.	8r	.	4G\	.	4e-/	.	4g/	.
8B-/L	.	8b-\L	p	.	.	.	.	.	.
8B-/	.	8b-\	.	4r	.	4r	.	4r	.
8B-/J	.	8b-\J	.	.	.	.	.	.	.
!LO:LB:g=original	!	!	!	!	!	!	!	!LO:LB:g=original	!
=23	=23	=23	=23	=23	=23	=23	=23	=23	=23
!	!	!	!	!	!LO:DY:rj	!	!	!	!LO:DY:rj:t=f.
4.B-/	.	4.b-\	f	4AA-/	f	(4f/	.	8.dd\L	f
.	.	.	.	.	.	.	.	(32ee-\LL	.
.	.	.	.	.	.	.	.	32ff\JJJ)	.
.	.	.	.	4GG/	.	4g/)	.	4ee-\	p
8B-/L	.	8b-\L	p	.	.	.	.	.	.
8B-/	.	8b-\	.	4r	.	4r	.	4r	.
8B-/J	.	8b-\J	.	.	.	.	.	.	.
=24	=24	=24	=24	=24	=24	=24	=24	=24	=24
!	!	!	!	!	!	!	!	!	!LO:DY:rj:t=f.
4B-/	.	4b-\	f	4AA-/	.	4f/	.	8.dd\L	f
.	.	.	.	.	.	.	.	(32ee-\LL	.
.	.	.	.	.	.	.	.	32ff\JJJ)	.
8B-/	.	8b-\	p	4GG/	.	16e-/LL	.	(16ee-\LL	.
.	.	.	.	.	.	16g/	.	16b-\	p
8r	.	8r	.	.	.	16a-/	.	16cc\	.
.	.	.	.	.	.	16b-/JJ	.	16dd\JJ)	.
!	!	!	!	!	!	!	!	!	!LO:HP:t=cres.
4r	.	4r	.	4r	.	16cc\LL	.	(16ee-\LL	<
.	.	.	.	.	.	16dd\	.	16ff\	.
.	.	.	.	.	.	16ee-\	.	16gg\	.
.	.	.	.	.	.	16ff\JJ	.	16aa-\JJ)	.
!	!	!LO:LB:g=original	!	!	!	!LO:LB:g=original	!	!	!
=25	=25	=25	=25	=25	=25	=25	=25	=25	=25
8.g\L	.	8.b-\L	.	8.EE-/L	.	8.gg\L	.	8.bb-\L	.
16f\Jk	.	16a-\Jk	.	16AA-/Jk	.	16ff\Jk	.	16aa-\Jk	.
4e-\	.	4g\	.	4BB-/	.	4ee-\	.	4gg\	.
4B-\	.	4f\	.	4BB-/	.	4dd\	.	4ff\	.
=26	=26	=26	=26	=26	=26	=26	=26	=26	=26
(16g\LL	.	(16b-\LL	.	8.E-\L	.	4g/	.	4b-\	.
16f\	.	16a-\	.	.	.	.	.	.	.
16e-\	.	16g\	.	.	.	.	.	.	.
16f\JJ)	.	16a-\JJ)	.	16E-\Jk	.	.	.	.	.
4g\	.	4b-\	.	4EE-/	.	8r	.	8r	.
.	.	.	.	.	.	8ee-'\L	.	8gg'\L	.
4r	.	4r	.	4r	.	8dd'\	.	8ff'\	.
.	.	.	.	.	.	8cc'\J	.	8ee-'\J	.
=27	=27	=27	=27	=27	=27	=27	=27	=27	=27
!LO:TX:a:t=1	!	!LO:TX:a:t=1	!	!LO:TX:a:t=1	!	!	!	!	!
2.r	.	2.r	.	2.r	.	8b-/L	.	8dd|\L	.
.	.	.	.	.	.	8a-/	.	8cc|\	.
.	.	.	.	.	.	8g/	.	8b-|\	.
.	.	.	.	.	.	8f/	.	8a-|\	.
.	.	.	.	.	.	8e-/	.	8g|\	.
.	.	.	.	.	.	8g/J	.	8b-|\J	.
!	!	!	!	!LO:LB:g=original	!	!	!	!LO:LB:g=original	!
=28	=28	=28	=28	=28	=28	=28	=28	=28	=28
.	.	.	.	.	.	16qqb-/	.	16qqdd/	.
4G/	.	4e-\	.	8AA-/L	.	8a-/L	.	8cc\L	.
.	.	.	.	8AA-/	.	16g/L	.	16b-\L	.
.	.	.	.	.	.	16f/JJ	.	16a-\JJ	.
4E-/ 4e-	.	4g\	.	8BB-/	.	4e-/	.	4g/	.
.	.	.	.	8AA-/	.	.	.	.	.
4G/	.	4e-\	.	8BB-/	.	4d/	.	4f/	.
.	.	.	.	8AA-/J	.	.	.	.	.
=29	=29	=29	=29	=29	=29	=29	=29	=29	=29
!	!	!	!	!LO:TX:t=P:problem=mixed beam	!	!	!	!	!
16g\LL	.	(16b-\LL	.	8EE-/L	.	16g/LL	.	16b-\LL	.
16f\	.	16a-\	.	.	.	16f/	.	16a-\	.
16e-\	.	16g\	.	8E-\J	.	16e-/	.	16g\	.
16f\JJ	.	16a-\JJ)	.	.	.	16f/JJ	.	16a-\JJ	.
4g\	.	4b-\	.	4EE-/	.	8g\L	.	8b-\L	.
.	.	.	.	.	.	8ee-'\	.	8gg\	.
4r	.	4r	.	4r	.	8dd'\	.	8ff\	.
.	.	.	.	.	.	8cc'\J	.	8ee-\J	.
!	!	!	!	!	!	!LO:LB:g=original	!	!	!
=30	=30	=30	=30	=30	=30	=30	=30	=30	=30
!LO:TX:a:t=1	!	!LO:TX:a:t=1	!	!LO:TX:a:t=1	!	!	!	!	!
2.r	.	2.r	.	2.r	.	8b-/L	.	8dd'\L	.
.	.	.	.	.	.	8a-/	.	8cc'\	.
.	.	.	.	.	.	8g/	.	8b-'\	.
.	.	.	.	.	.	8f/	.	8a-'\J	.
.	.	.	.	.	.	8e-/	.	(16g\LL	.
.	.	.	.	.	.	.	.	16b-\	.
.	.	.	.	.	.	8g/J	.	16dd\	.
.	.	.	.	.	.	.	.	16ee-\JJ)	.
!LO:LB:g=original	!	!	!	!	!	!	!	!	!
=31	=31	=31	=31	=31	=31	=31	=31	=31	=31
.	.	.	.	.	.	16qqb-/	.	16qqdd/	.
4G/	.	4d\	.	8AA-/L	.	8a-/L	.	8cc\L	.
.	.	.	.	8AA-/	.	16g/L	.	16b-\L	.
.	.	.	.	.	.	16f/JJ	.	16a-\JJ	.
4e-\	.	4g\	.	8BB-/	.	4e-/	.	4g/	.
.	.	.	.	8AA-/	.	.	.	.	.
4c/	.	4f\	.	8BB-/	.	4d/	.	4f/	.
.	.	.	.	8AA-/J	.	.	.	.	.
=32	=32	=32	=32	=32	=32	=32	=32	=32	=32
4G/	.	4e-\	.	4E-\	.	4e-/	.	4e-/	.
4r	.	4r	.	4EE-/	.	4r	.	4r	.
!LO:TX:a:t=Subito	!	!	!	!	!	!	!	!	!
!	!	!	!	!LO:TX:t=22	!	!	!	!LO:TX:t=22	!
4r	.	4r	.	4r	.	4r	.	4r	.
!LO:PB:g=original	!	!LO:PB:g=original	!	!LO:LB:g=original	!	!LO:PB:g=original	!	!LO:LB:g=original	!
=:|!	=:|!	=:|!	=:|!	=:|!	=:|!	=:|!	=:|!	=:|!	=:|!
*-	*-	*-	*-	*-	*-	*-	*-	*-	*-
!!!system-decoration: [(s1,s2)][(s3,s4,s5)]
!!!RDF**kern: < = below
!!!RDF**kern: > = above
!!!RDF**kern: | = vertical stroke
!!!ENC: Marta Chmielewska
!!!END: 2021-06-30
!!!ENC: Tomasz Grochalski
!!!END: 2021-06-18
!!!YEC: Copyright 2022 Narodowy Instytut Fryderyka Chopina (https://polishscores.org)
!!!YEM: License CC-BY-4.0 (https://creativecommons.org/licenses/by/4.0)
